!!!COM:	Obrecht, Jacob
!!!CDT:	1458-1505/07/
!!!OPR:	Missa Adieu mes amours
!!!ONM:	4
!!!OTL:	Sanctus
!!!AGN:	Mass; Sanctus
!!!SCT:	Obr1001d
!!!SCA:	Obr1001d
!!!voices:	4
**kern	**kern	**kern	**kern
*staff4	*staff3	*staff2	*staff1
*Ivox	*Ivox	*Ivox	*Ivox
*I"Bassus	*I"Tenor	*I"Altus	*I"Superius
*I'B	*I'T	*I'A	*I'S
*>[A,B,C,D,C]	*>[A,B,C,D,C]	*>[A,B,C,D,C]	*>[A,B,C,D,C]
*>A	*>A	*>A	*>A
*clefF4	*clefGv2	*clefGv2	*clefG2
*k[b-]	*k[b-]	*k[b-]	*k[b-]
*M3/1	*M3/1	*M3/1	*M3/1
*met(O)	*met(O)	*met(O)	*met(O)
!!section: Sanctus
!!!OMD: Sanctus
=1-	=1-	=1-	=1-
2.GG/	0.r	0.G	0.r
4AA/	.	.	.
2BB-/	.	.	.
2.C/	.	.	.
4D\	.	.	.
2E\	.	.	.
=2	=2	=2	=2
2F\	0.r	2D/	0.r
2.G\	.	2.E/	.
4A\	.	4D/	.
2B-\	.	1G	.
2.A\	.	.	.
.	.	2F/	.
8G\L	.	.	.
8F\J	.	.	.
=3	=3	=3	=3
2.E\	0.r	2.G/	0.g
4F\	.	4A/	.
2G\	.	2B-\	.
2C/	.	2.c\	.
1r	.	.	.
.	.	4B-\	.
.	.	[2c\	.
=4	=4	=4	=4
0.r	0.r	4c\]	2d/
.	.	4B-\	.
.	.	2.c\	2.e/
.	.	4B-\	4d/
.	.	4A/	1g
.	.	4G/	.
.	.	1A	.
.	.	.	2f#i/
=5	=5	=5	=5
0.G	0.r	1G	2.g/
.	.	.	4f/
.	.	1.B-	4e-i/
.	.	.	4d/
.	.	.	2.e-i/
.	.	.	4d/
.	.	4A/	4c/
.	.	4G/	4B-/
=6	=6	=6	=6
2D\	0.r	2A/	2d/
2.E\	.	2.G/	2.c/
4D\	.	4F/	4B-/
1G	.	2E/	4A/
.	.	.	4G/
.	.	1D	1A
2F#i\	.	.	.
=7	=7	=7	=7
2.G\	0.r	2r	1G
.	.	2.G/	.
4F\	.	.	.
4E\	.	.	2.g/
4D\	.	4F/	.
2.G\	.	4E/	.
.	.	4D/	4f/
.	.	2.G/	4e/
4F\	.	.	4d/
4E\	.	.	[2g/
4D\	.	4F/	.
=8	=8	=8	=8
1.G	0.r	4E/	4g/]
.	.	4D/	4f/
.	.	2.G/	4e/
.	.	.	4d/
.	.	.	2.g/
.	.	4F/	.
2.GG/	.	4E/	.
.	.	4D/	4f/
.	.	1G	4e/
4AA/	.	.	4d/
2BB-/	.	.	[2g/
=9	=9	=9	=9
2C/	0.r	1A	2g/]
2D\	.	.	2f/
1E-	.	2G/	1g
.	.	1G	.
1D	.	.	1a
.	.	2F#i/	.
=10	=10	=10	=10
2GG/	0.G	2.G/	1g
1C	.	.	.
.	.	4F/	.
.	.	2E/	2r
2BB-/	.	2D/	1dd
1C	.	1E	.
.	.	.	2cc\
=11	=11	=11	=11
1GG	1.B-	1D	1.dd
2D\	.	2r	.
1G	4A/	2d\	2b-\
.	4G/	.	.
.	1A	2e\	1cc
2F\	.	2f\	.
=12	=12	=12	=12
1G	2G/	0d	1.b-
.	2.B-\	.	.
2D\	.	.	.
.	4A/	.	.
2F\	1d	.	2a/
1E	.	1G	1g
.	2c\	.	.
=13	=13	=13	=13
2D\	2f\	2A/	2f/
2.G\	2.e\	2.B-\	2.g/
4D\	4d\	4A/	4a/
2F\	1d	1A	2f/
1E	.	.	1g
.	2c#i\	2G/	.
=14	=14	=14	=14
0D	[0d	1A	2.f/
.	.	.	4g/
.	.	1r	2a/
.	.	.	2.b-\
1F	1d_	1A	.
.	.	.	4a/
.	.	.	[2a/
=15	=15	=15	=15
1G	0.d]	1B-	2a/]
.	.	.	2g/
0D	.	2A/	0a
.	.	2.F/	.
.	.	4G/	.
.	.	2A/	.
=16	=16	=16	=16
2.F\	0.r	1D	1r
4E\	.	.	.
4D\	.	2E/	0a
4C/	.	.	.
2.D\	.	1F	.
4C/	.	.	.
4BB-/	.	2D/	.
4AA/	.	.	.
=17	=17	=17	=17
1GG	1d	1D	1b-
2AA/	2c\	1r	2a/
2GG/	1d	.	1b-
2BB-/	.	2d\	.
2C/	4c\	2e-i\	4a/
.	4B-\	.	4g/
=18	=18	=18	=18
2D\	2A/	2d\	2f/
2E-i\	2G/	2c\	2g/
2D\	2B-\	2d\	2f/
2C/	2c\	2e-i\	1g
1D	1A	1d	.
.	.	.	2f#i/
=19	=19	=19	=19
0GG	0.G	1d	[0g
.	.	2.d\	.
.	.	8c\L	.
.	.	8d\J	.
1r	.	2e-i\	1g]
.	.	[2d\	.
=20	=20	=20	=20
1G	0.r	2d\]	0.r
.	.	4c\	.
.	.	4B-\	.
2F\	.	2A/	.
2G\	.	2G/	.
2E\	.	2c\	.
2F\	.	2d\	.
=21	=21	=21	=21
2G\	0.r	2e\	0.r
2A\	.	2.f\	.
1D	.	.	.
.	.	4e\	.
.	.	1d	.
2.E\	.	.	.
.	.	2c#i\	.
8D\L	.	.	.
8E\J	.	.	.
=22	=22	=22	=22
2D\	0.r	2d\	0.r
2C/	.	2.e\	.
2.G\	.	.	.
.	.	4c\	.
.	.	1c	.
8F\L	.	.	.
8E\J	.	.	.
1D	.	.	.
.	.	2Bni\	.
=23	=23	=23	=23
0C	0c	0c	2.g/
.	.	.	8f/L
.	.	.	8g/J
.	.	.	2a/
.	.	.	2.g/
1E	1B-	1r	.
.	.	.	4f/
.	.	.	4e/
.	.	.	4d/
=24	=24	=24	=24
1F	1A	1.c	2c/
.	.	.	1f
0C	0G	.	.
.	.	4B-\	4e/
.	.	4A/	4d/
.	.	2G/	1e
.	.	2c\	.
=25	=25	=25	=25
1D	0.F	2A/	0f
.	.	1d	.
2BB-/	.	.	.
2C/	.	4c\	.
.	.	4B-\	.
1D	.	1A	1f
=26	=26	=26	=26
2GG/	0.r	0G	1g
2.BB-/	.	.	.
.	.	.	1b-
4AA/	.	.	.
1GG	.	.	.
.	.	1r	1a
2FF#i/	.	.	.
=27	=27	=27	=27
0GG	0.r	1G	2g/
.	.	.	2.b-\
.	.	1B-	.
.	.	.	4a/
.	.	.	1g
1D	.	1A	.
.	.	.	2f#i/
=28	=28	=28	=28
2r	1G	2G/	1g
2.GG/	.	2.B-\	.
.	1B-	.	0dd
4AA/	.	4G/	.
4BB-/	.	1G	.
4C/	.	.	.
1D	1A	.	.
.	.	2F#i/	.
=29	=29	=29	=29
1.GG	1G	2.G/	2b-\
.	.	.	2.dd\
.	.	4A/	.
.	1d	4B-\	.
.	.	4c\	4cc\
2G\	.	4d\	2b-\
.	.	4e\	.
2.A\	2r	2f\	[1a
.	[2c\	[2e\	.
4G\	.	.	.
=30	=30	=30	=30
2F\	2c\]	4e\]	2a/]
.	.	4d\	.
2G\	2B-\	1d	2.b-\
1E	1G	.	.
.	.	.	4g/
.	.	2c\	1g
1D	1A	[1dl	.
.	.	.	2f#i/
=31	=31	=31	=31
0.GGl	0.Gl	0.d]	0.gl
!!LO:LB:i:g=z
=32||	=32||	=32||	=32||
*>B	*>B	*>B	*>B
*clefF4	*clefGv2	*clefGv2	*clefG2
*k[b-]	*k[b-]	*k[b-]	*k[b-]
*M2/1	*M2/1	*M2/1	*M2/1
*met(C|)	*met(C|)	*met(C|)	*met(C|)
!!section: Pleni
!!!OMD: Pleni
1.G	0r	1G	0r
.	.	1B-	.
4F\	.	.	.
4E\	.	.	.
=33	=33	=33	=33
2F\	0r	1A	0r
4G\	.	.	.
4A\	.	.	.
2B-\	.	2G/	.
[2G\	.	[2B-\	.
=34	=34	=34	=34
4G\]	0r	2B-\]	0r
4A\	.	.	.
2B-\	.	4A/	.
.	.	4G/	.
2.A\	.	1F#i	.
4G\	.	.	.
=35	=35	=35	=35
2E\	0r	1G	0r
2C/	.	.	.
1G	.	1r	.
=36	=36	=36	=36
1B-	0r	1d	0r
1A	.	1f	.
=37	=37	=37	=37
1G	0r	1e	0r
2B-\	.	2d\	.
[2A\	.	[2f\	.
=38	=38	=38	=38
4A\]	0r	2f\]	0r
4G\	.	.	.
2F\	.	4e\	.
.	.	4d\	.
1E	.	1c#i	.
=39	=39	=39	=39
2D\	0r	1d	1d
1F	.	.	.
.	.	1d	1f
4E\	.	.	.
4D\	.	.	.
=40	=40	=40	=40
1C	0r	2.G/	1e
.	.	4A/	.
1D	.	2B-\	2d/
.	.	[2A/	[2f/
=41	=41	=41	=41
1r	0r	4A/]	2f/]
.	.	4G/	.
.	.	2F/	4e/
.	.	.	4d/
1G	.	1E	1c#i
=42	=42	=42	=42
1B-	0r	0D	1d
1A	.	.	1r
=43	=43	=43	=43
2G\	0r	0r	1g
1B-	.	.	.
.	.	.	1b-
4A\	.	.	.
4G\	.	.	.
=44	=44	=44	=44
1F	0r	0r	1a
2G\	.	.	2g/
[2D\	.	.	[2b-\
=45	=45	=45	=45
2D\]	0r	0r	2b-\]
4C/	.	.	4a/
4BB-/	.	.	4g/
1AA	.	.	1f#i
=46	=46	=46	=46
0GG	0r	2r	1g
.	.	1G	.
.	.	.	1b-
.	.	4F/	.
.	.	4E/	.
=47	=47	=47	=47
1D	0r	1F	1a
1E-	.	2G/	1g
.	.	[2B-\	.
=48	=48	=48	=48
2D\	0r	2B-\]	0dd
2.BB-/	.	4A/	.
.	.	4G/	.
.	.	1B-	.
4C/	.	.	.
4D\	.	.	.
4Eni\	.	.	.
=49	=49	=49	=49
2F\	0r	1A	0cc
2.C/	.	.	.
.	.	2.c\	.
4D\	.	.	.
4E\	.	.	.
4F\	.	4d\	.
=50	=50	=50	=50
1G	0r	2e-i\	1b-
.	.	2.d\	.
1D	.	.	1a
.	.	4e\	.
.	.	2f\	.
=51	=51	=51	=51
0E-i	0r	4g\	2g/
.	.	4f\	.
.	.	4e\	2.cc\
.	.	4d\	.
.	.	1c	.
.	.	.	4b-\
.	.	.	4a/
.	.	.	4g/
=52	=52	=52	=52
[0D	0r	1.d	[0f
.	.	4c\	.
.	.	4B-\	.
=53	=53	=53	=53
1D]	0r	1A	0f]
2r	.	2r	.
2D\	.	2A/	.
=54	=54	=54	=54
2G\	0r	2B-\	0r
2F\	.	2A/	.
2G\	.	2B-\	.
2A\	.	2c\	.
=55	=55	=55	=55
2G\	0r	2.B-\	0r
4F\	.	.	.
4E\	.	8A/L	.
.	.	8G/J	.
1D	.	1A	.
=56	=56	=56	=56
2GG/	0r	2r	1g
1BB-	.	1D	.
.	.	.	1b-
2C/	.	2E/	.
=57	=57	=57	=57
1D	0r	1F	1a
1GG	.	[1G	1g
=58	=58	=58	=58
1r	0r	2G/]	0dd
.	.	2A/	.
1G	.	1B-	.
=59	=59	=59	=59
1A	0r	1c	1cc
1D	.	2.d\	2b-\
.	.	.	[2a/
.	.	8c\L	.
.	.	8d\J	.
=60	=60	=60	=60
1F	0r	2c\	4a/]
.	.	.	4g/
.	.	2A/	4f/
.	.	.	4e/
2G\	.	[1B-	4d/
.	.	.	4c/
2D\	.	.	4B-/
.	.	.	4A/
=61	=61	=61	=61
1E-	0r	2B-\]	2G/
.	.	4A/	1g
.	.	4G/	.
1D	.	1A	.
.	.	.	2f#i/
=62	=62	=62	=62
1.E-i	0r	0G	[0g
[2C/	.	.	.
=63	=63	=63	=63
4C/]	0r	1C	0g]
4D\	.	.	.
1E-	.	.	.
.	.	[1G	.
4D\	.	.	.
4C/	.	.	.
=64	=64	=64	=64
2BB-/	0r	1G]	0r
2C/	.	.	.
1AA	.	1F#i	.
=65	=65	=65	=65
0r	0r	1.G	1g
.	.	.	1dd
.	.	[2B-\	.
=66	=66	=66	=66
0r	0r	2B-\]	1dd
.	.	4A/	.
.	.	4G/	.
.	.	1A	1cc
=67	=67	=67	=67
1r	0r	2B-\	0dd
.	.	2.d\	.
1D	.	.	.
.	.	4e\	.
.	.	[2f\	.
=68	=68	=68	=68
1F	0r	4f\]	1cc
.	.	4d\	.
.	.	1d	.
2G\	.	.	2b-\
2A\	.	2c\	[2a/
=69	=69	=69	=69
2F\	0r	2d\	4a/]
.	.	.	4g/
2G\	.	2B-\	1g
1D	.	1A	.
.	.	.	2f#i/
=70	=70	=70	=70
[0GG	0r	0G	0g
=71	=71	=71	=71
1GG]	0r	0r	1d
[1D	.	.	[1f
=72	=72	=72	=72
2D\]	0r	1D	2f/]
4C/	.	.	4e/
4BB-/	.	.	4d/
1AA	.	1A	1c
=73	=73	=73	=73
0BB-	0r	1F	0d
.	.	1G	.
=74	=74	=74	=74
2.AA/	0r	0A	2.c/
4BB-/	.	.	4d/
2C/	.	.	2e/
[2D\	.	.	[2f/
=75	=75	=75	=75
2D\]	0r	1G	2f/]
2C/	.	.	2e/
2D\	.	2F/	2d/
[2C/	.	[2G/	[2e/
=76	=76	=76	=76
4C/]	0r	4G/]	4e/]
4D\	.	4F/	4d/
2BB-/	.	2D/	1d
1AA	.	1E	.
.	.	.	2c#i/
=77	=77	=77	=77
1r	0r	[0D	0d
1D	.	.	.
=78	=78	=78	=78
1.F	0r	0D]	1r
.	.	.	1d
2G\	.	.	.
=79	=79	=79	=79
1A	0r	1r	1.f
4A\	.	1D	.
4G\	.	.	.
4F\	.	.	2g/
4E\	.	.	.
=80	=80	=80	=80
1D	0r	1.F	1.a
1r	.	.	.
.	.	2G/	[2cc\
=81	=81	=81	=81
1F	0r	1A	4cc\]
.	.	.	4b-\
.	.	.	4a/
.	.	.	4g/
2D\	.	1B-	2f/
[2E\	.	.	[2g/
=82	=82	=82	=82
2E\]	0r	1c	2g/]
2.F\	.	.	1a
.	.	2A/	.
4E\	.	.	.
4D\	.	[2d\	[2b-\
4C/	.	.	.
=83	=83	=83	=83
1BB-	0r	4d\]	4b-\]
.	.	4c\	4a/
.	.	4B-\	4g/
.	.	4A/	4f/
1C	.	1G	1e
=84	=84	=84	=84
1.D	0r	1F	2f/
.	.	.	2.d/
.	.	1B-	.
.	.	.	4e/
2BB-/	.	.	4f/
.	.	.	4g/
=85	=85	=85	=85
1.F	0r	1.c	1.a
2G\	.	2B-\	2b-\
=86	=86	=86	=86
2F\	0r	2c\	2a/
2G\	.	2B-\	1b-
1F	.	1c	.
.	.	.	2a/
=87	=87	=87	=87
0BB-	0r	1.B-	1b-
.	.	.	1r
.	.	[2d\	.
=88	=88	=88	=88
0GG	0r	4d\]	1.b-
.	.	4c\	.
.	.	4B-\	.
.	.	4A/	.
.	.	2.B-\	.
.	.	.	[2dd\
.	.	4A/	.
=89	=89	=89	=89
0BB-	0r	1.F	4dd\]
.	.	.	4cc\
.	.	.	4b-\
.	.	.	4a/
.	.	.	2.b-\
.	.	[2f\	.
.	.	.	4a/
=90	=90	=90	=90
1.BB-	0r	4f\]	2f/
.	.	4e\	.
.	.	2d\	2g/
.	.	2B-\	2b-\
[2F\	.	[2c\	[2a/
=91	=91	=91	=91
4F\]	0r	4c\]	4a/]
4G\	.	4B-\	4g/
2E\	.	2G/	1g
1D	.	1A	.
.	.	.	2f#i/
=92	=92	=92	=92
2BB-/	0r	[0Gl	[0gl
1C	.	.	.
4BB-/	.	.	.
4AA/	.	.	.
=93	=93	=93	=93
0GGl	0r	0G]	0g]
!!LO:LB:i:g=z
=94||	=94||	=94||	=94||
*>C	*>C	*>C	*>C
*clefF4	*clefGv2	*clefGv2	*clefG2
*k[b-]	*k[b-]	*k[b-]	*k[b-]
*M3/1	*M3/1	*M3/1	*M3/1
*met(O)	*met(O)	*met(O)	*met(O)
!!section: Osanna
!!!OMD: Osanna
2.GG/	0.r	1.d	0g
4AA/	.	.	.
2BB-/	.	.	.
1C	.	1e-	.
.	.	.	1a
4BB-/	.	4d\	.
4AA/	.	4c\	.
=95	=95	=95	=95
2.GG/	0.G	1.d	1.b-
4AA/	.	.	.
2BB-/	.	.	.
2.C/	.	2.e-i\	2a/
.	.	.	1g
4D\	.	4d\	.
2E\	.	4c\	.
.	.	4B-\	.
=96	=96	=96	=96
2F\	0d	2A/	2f/
2.G\	.	2.B-\	2d/
.	.	.	0g
4F\	.	4A/	.
4E\	.	4G/	.
4D\	.	4F/	.
1E	1c	1G	.
=97	=97	=97	=97
1D	0d	1.A	0f
2.F\	.	.	.
.	.	4G/	.
8E\L	.	4F/	.
8D\J	.	.	.
2E\	1c	2G/	1r
[2D\	.	[2F/	.
=98	=98	=98	=98
2D\]	2B-\	2F/]	1r
2C/	2.A/	2E/	.
2D\	.	2F/	2f/
.	4G/	.	.
2BB-/	1G	1D	2g/
1AA	.	.	1a
.	2F#i/	2C/	.
=99	=99	=99	=99
1.GG	0.G	1D	2b-\
.	.	.	2.g/
.	.	0E	.
.	.	.	4f/
1C	.	.	4e/
.	.	.	4d/
.	.	.	1c
4BB-/	.	.	.
4AA/	.	.	.
=100	=100	=100	=100
2BB-/	1r	2D/	2d/
2C/	.	2.G/	1e
2GG/	1r	.	.
.	.	4A/	.
1G	.	2.B-\	4d/
.	.	.	4c/
.	1G	.	1d
.	.	4A/	.
4F\	.	2G/	.
4E\	.	.	.
=101	=101	=101	=101
2F\	0d	2A/	2r
2G\	.	1B-	2g/
2D\	.	.	2a/
2F\	.	1A	2f/
1E	1c	.	1g
.	.	2G/	.
=102	=102	=102	=102
2D\	0d	2A/	4f/
.	.	.	4e/
2.BB-/	.	2B-\	4d/
.	.	.	4c/
.	.	1F	2B-/
4C/	.	.	.
4D\	.	.	1b-
4E\	.	.	.
2.F\	1c	2r	.
.	.	2f\	2a/
8E\L	.	.	.
8F\J	.	.	.
=103	=103	=103	=103
2G\	2B-\	2d\	2b-\
2C/	2.c\	2.e-\	2.a/
1E-	.	.	.
.	4B-\	4d\	4g/
.	4A/	4c\	1g
.	4G/	4B-\	.
1D	1A	[1d	.
.	.	.	2f#i/
=104	=104	=104	=104
1.GG	0G	1d]	1g
.	.	1B-	1r
1BB-	.	.	.
.	1r	2G/	[1g
[2GG/	.	[2B-\	.
=105	=105	=105	=105
1GG]	1G	2B-\]	2g/]
.	.	2.G/	1b-
2.G\	1B-	.	.
.	.	4A/	.
.	.	4B-\	1g
8F\L	.	4c\	.
8E\J	.	.	.
1D	1A	[1d	.
.	.	.	2f#i/
=106	=106	=106	=106
2r	1G	1d]	2g/
2.GG/	.	.	2.b-\
.	1.d	2.B-\	.
4AA/	.	.	4cc\
4BB-/	.	.	2.dd\
4C/	.	4A/	.
2D\	.	2F/	.
.	.	.	4cc\
2G\	4c\	2G/	2b-\
.	4B-\	.	.
=107	=107	=107	=107
2F\	2c\	2A/	2a/
2.G\	2.B-\	2d\	2.g/
.	.	2e-\	.
4E\	4A/	.	4f/
2F\	4G/	1c	1f
.	4F/	.	.
1C	1G	.	.
.	.	2c\	2e/
=108	=108	=108	=108
1r	1F	1A	1f
1GG	1r	2G/	1.g
.	.	1B-	.
1BB-	1G	.	.
.	.	[2G/	[2b-\
=109	=109	=109	=109
1GG	1B-	2G/]	2b-\]
.	.	1.d	1g
1D	1A	.	.
.	.	.	2f#i/
[1GG	1G	2.B-\	2g/
.	.	.	[2b-\
.	.	4A/	.
=110	=110	=110	=110
2GG/]	0d	2G/	4b-\]
.	.	.	4cc\
2.BB-/	.	2F/	2.dd\
.	.	1B-	.
4C/	.	.	4cc\
4D\	.	.	2b-\
4BB-/	.	.	.
[1F	[1c	[1A	2cc\
.	.	.	[2a/
=111	=111	=111	=111
2F\]	2c\]	2A/]	4a/]
.	.	.	4g/
2.G\	2B-\	1d	2.b-\
.	1G	.	.
4F\	.	.	4a/
2E\	.	2c\	1g
1D	1A	[1dl	.
.	.	.	2f#i/
=112	=112	=112	=112
0.GGl	0.Gl	0.d]	0.gl
!!LO:LB:i:g=z
!!LO:TX:rj:i:t=fine
=113||	=113||	=113||	=113||
*>D	*>D	*>D	*>D
*clefF4	*clefGv2	*clefGv2	*clefG2
*k[b-]	*k[b-]	*k[b-]	*k[b-]
*M2/1	*M2/1	*M2/1	*M2/1
*met(C|)	*met(C|)	*met(C|)	*met(C|)
!!section: Benedictus
!!!OMD: Benedictus
1.G	0r	0r	1.g
4F\	.	.	2b-\
4E\	.	.	.
=114	=114	=114	=114
1F	0r	0r	1a
2G\	.	.	1g
[2B-\	.	.	.
=115	=115	=115	=115
2B-\]	0r	0r	1b-
4A\	.	.	.
4G\	.	.	.
1A	.	.	1cc
=116	=116	=116	=116
1D	0r	0r	1.dd
1G	.	.	.
.	.	.	4cc\
.	.	.	4b-\
=117	=117	=117	=117
2F\	0r	1r	2a/
1G	.	.	1b-
.	.	1d	.
4F\	.	.	4a/
4E\	.	.	4g/
=118	=118	=118	=118
2.D\	0r	1.d	2.f/
4E\	.	.	4g/
2F\	.	.	2a/
[2G\	.	2c\	[2b-\
=119	=119	=119	=119
4G\]	0r	1B-	4b-\]
4F\	.	.	4a/
2G\	.	.	2b-\
2E\	.	1c	2g/
[2F\	.	.	[2a/
=120	=120	=120	=120
4F\]	0r	0A	4a/]
4E\	.	.	4g/
4D\	.	.	4f#i/
4C/	.	.	4e/
1D	.	.	1f#i
=121	=121	=121	=121
1GG	0r	1G	0g
1r	.	[1d	.
=122	=122	=122	=122
1D	0r	2d\]	0r
.	.	2e\	.
1D	.	[1f	.
=123	=123	=123	=123
1F	0r	2f\]	0r
.	.	2.d\	.
2D\	.	.	.
.	.	4c\	.
[2E-i\	.	[2B-\	.
=124	=124	=124	=124
4E-\]	0r	2B-\]	0r
4D\	.	.	.
4C/	.	4A/	.
4BB-/	.	4G/	.
1C	.	1A	.
=125	=125	=125	=125
0BB-	0r	1.B-	1r
.	.	.	1d
.	.	4A/	.
.	.	4G/	.
=126	=126	=126	=126
0r	0r	2F/	1d
.	.	1G	.
.	.	.	1e
.	.	4F/	.
.	.	4E/	.
=127	=127	=127	=127
1r	0r	1.D	0f
1D	.	.	.
.	.	[2A/	.
=128	=128	=128	=128
1C	0r	2A/]	1e
.	.	4G/	.
.	.	4A/	.
2BB-/	.	2B-\	2d/
[2C/	.	[2A/	[2e/
=129	=129	=129	=129
2C/]	0r	2A/]	4e/]
.	.	.	4d/
2D\	.	4G/	1d
.	.	4F/	.
1AA	.	1E	.
.	.	.	2c#i/
=130	=130	=130	=130
0r	0r	0D	1.d
.	.	.	[2f/
=131	=131	=131	=131
0r	0r	1r	4f/]
.	.	.	4g/
.	.	.	4a/
.	.	.	4b-\
.	.	1A	2cc\
.	.	.	[2a/
=132	=132	=132	=132
0r	0r	1B-	2a/]
.	.	.	4g/
.	.	.	4f/
.	.	1B-	1g
=133	=133	=133	=133
1r	0r	2A/	0a
.	.	1c	.
1C	.	.	.
.	.	4B-\	.
.	.	4A/	.
=134	=134	=134	=134
1BB-	0r	2G/	0r
.	.	1A	.
1BB-	.	.	.
.	.	2G/	.
=135	=135	=135	=135
4AA/	0r	0A	1r
4BB-/	.	.	.
4C/	.	.	.
4D\	.	.	.
2E\	.	.	1cc
2F\	.	.	.
=136	=136	=136	=136
2G\	0r	0r	1b-
1A	.	.	.
.	.	.	1b-
2G\	.	.	.
=137	=137	=137	=137
1A	0r	0r	1a
2B-\	.	.	1dd
[2B-\	.	.	.
=138	=138	=138	=138
2B-\]	0r	1r	1.dd
4A\	.	.	.
4G\	.	.	.
1F	.	1d	.
.	.	.	2cc\
=139	=139	=139	=139
2G\	0r	1.d	2b-\
2.D\	.	.	2.a/
4E\	.	.	4g/
2F\	.	2c\	4f/
.	.	.	4e/
=140	=140	=140	=140
1G	0r	1B-	2d/
.	.	.	1g
1C	.	1c	.
.	.	.	4f/
.	.	.	4e/
=141	=141	=141	=141
0D	0r	0A	2f/
.	.	.	1g
.	.	.	2f#i/
=142	=142	=142	=142
0GGl	0r	0Gl	0gl
!!LO:TX:i:Y=40:rj:t=Osanna ut supra
=||	=||	=||	=||
*-	*-	*-	*-
!!!RDF**kern: l=long note in original notation
!!!RDF**kern: i=editorial accidental
!!!ENC:	Jesse Rodin 2013
!!!END:	2013/05/07/
!!!EED:	Jesse Rodin
!!!EEV:	2014/01/03/
!!!ONB:	Translated from MusicXML and edited on 2014/01/03/ by Craig Sapp
!!muse2ps: T^@{OPR}^u^@{ONM}{. }@{OTL}^C^@{COM}^i2I150v85,85,85,150Q8c110
